X:2
T: Batchelder's (R-54; New England)
M: C|
Z: Transcribed to abc by Mary Lou Knack
R: reel
K: F
c2| "F"f2af "C7"efge| "F"f2c2- c2=Bc| "Bb"dcBA BAGF| "C7"EFGA Bcde|
    "F"f2af "C7"efge| "F"f2c2- c2=Bc| "Bb"dcBA BAGF| "C7"EFGE "F"F2:|
z2|:"F"A2cA cAcA| "Bb"B2dB dBdB| "F"A2cA cAcA| "C7"BAGF EFGB|
"F"A2cA cAcA| "Bb"B2dB dBdB| "F"Acfa "C7"bgeg| "F"f2a2 f4 :|
%%text Transition -- play this instead of last measure above:
|f2z2^c3d|

